X:1
T:[ID 4-45r]
T:[ID 4-45r]
T:Bezeichnung standardisiert: Tantz Tantz In dieser Quelle auch als: Courant
T:Urheber unbekannt Datum in der hier transkribierten schriftlichen Quelle: 1767
C:Urheber unbekannt
C:Datum in der hier transkribierten schriftlichen Quelle: 1767
L:1/8
M:2/4
K:D
V:1 treble 
V:1
 a | ff d2 | gg e2 | cABc | ddda | ff d2 | gg e2 | cABc | d3 :: A | ABcd | e3 f | ggff | e3 a | %14
 ff d2 | gg e2 | cABc | d3 :| %18

